X:318
T:Tepeler, tepeler, yuksek tepeler
T:Peaks, peaks, high peaks
Z:Jack Campin, http://www.campin.me.uk/
F:Jack Campin's Nine-Note Tunebook
% last edit 05-02-2013
M:9/8
L:1/8
Q:9/8=32
G:song from Giresun, Black Sea region
K:GLyd
 A2 G2  A2     B3       | B2 B2    B2 B3        |BA dc B2- B2z|
_BA BA  Bc     B/c/Bc   |_BA G/F/G G2 BAG       |AG AF G2  z3 |
_B2 B2 (B2{c}) A/B/A/B/G|_BA G/F/G Gz BAG       |AG AF G2  z3 |
 G2 A2  B2     B3       | B2 B2    B2 B3        |A2 dc B2- B2z|
 dz dc  dc    _BAG      | Az GF    G2 G/A/G/A/F |AG AF G2  z3 |
 dz dc  dc    _BAG      |:Az GF    G2 G/A/G/A/F:|AG AF G2  z3|]

